src/pos-icons/restore.svg

<svg height="24" viewBox="0 0 24 24" width="24" xmlns="http://www.w3.org/2000/svg"><path d="m13 3a9 9 0 0 0 -9 9h-3l3.89 3.89.07.14 4.04-4.03h-3a7 7 0 0 1 7-7 7 7 0 0 1 7 7 7 7 0 0 1 -7 7c-1.93 0-3.68-.79-4.94-2.06l-1.42 1.42c1.63 1.64 3.86 2.64 6.36 2.64a9 9 0 0 0 9-9 9 9 0 0 0 -9-9z"/></svg>

<?xml version="1.0" encoding="UTF-8"?><!DOCTYPE svg PUBLIC "-//W3C//DTD SVG 1.1//EN" "http://www.w3.org/Graphics/SVG/1.1/DTD/svg11.dtd"><svg xmlns="http://www.w3.org/2000/svg" xmlns:xlink="http://www.w3.org/1999/xlink" version="1.1" id="mdi-restore" width="24" height="24" viewBox="0 0 24 24"><path d="M13,3A9,9 0 0,0 4,12H1L4.89,15.89L4.96,16.03L9,12H6A7,7 0 0,1 13,5A7,7 0 0,1 20,12A7,7 0 0,1 13,19C11.07,19 9.32,18.21 8.06,16.94L6.64,18.36C8.27,20 10.5,21 13,21A9,9 0 0,0 22,12A9,9 0 0,0 13,3Z" /></svg>
